X:388
T:Royal Lancashire Quick Step. RH.388
T:Lancashire Hornpipe,aka. RH.388
R:march
S:Rev.R.Harrison’s MS,c1815,Cumbria
N:See Wm Irwin MS.
O:England
A:Temple Sowerby,Cumbria
Z:vmp.Simon Wilson. Review PJH, 2008.
M:2/4
L:1/16
Q:1/4=100
K:G
g2d2 dedc|B2B2 BcBA|GABc defg|f2d2 d4|!
g2d2 dedc|B2B2 BcBA|G2GB A2Ac|G4 G4:|!
|:D2EF GABc|d2(df) e2(eg)|d2(df) e2(eg)|d4 z4|!
{ef}g2d2 dedc|B2B2 BcBA|G2GB A2Ac|G4- G4||!
B4 z2d2|(d2c2) c4|A6 c2|(c2B2) B4|\
G6 B2|A2A2 (c2A2)|(A2G2) (G2F2)|F4 G2|]

